X: 063
T: Miss Adams's Reel
C: by John Pringle
B: John Pringle "Collection of Reels Strathspeys & Jigs", 1801 p.6#3
Z: 2011 John Chambers <jc:trillian.mit.edu>
R: reel
M: C|
L: 1/8
K: C
V: 1
G |\
Tc2ec ~B>cdf | ecAc ~dcBG | ~c2ec TBcdf | ecGB c/c/c c :|
e |\
geaf fdgf | ecAc ~d>cB<G | geaf fdgf | ecGB c/c/c ce |
geaf fdgf | ecAc ~dcBG | EGcE FAdf | ecGB c/c/c c |]
V: 2 clef=bass middle=d
z |\
c2c2 g2G2 | c2c2 G2G2 | c2c2 G2B2 | c2G2 c2C :|
z |\
c2c2 g2b2 | c'2c2 g2G2 | c2c2 g2b2 | g2G2 c2cz |
c2c2 g2b2 | a2c2 g2G2 | c2e2 f2F2 | c2G2 c2C |]

%%sep 2 1 500

